X:75
T:The Red Snoeshoe
R:jig
C:Paul S. Cranford
O:Cape Breton Island
S:http://www.cranfordpub.com
D:currently unrecorded
B:currently unpublished in book form
Z:psc, (re-formatted,updated 9/17/04)
N:
H:                                                        copyrights Cranford Publications, SOCAN
L:1/8
Q:300
M:6/8
K:E
F|EGB EGB|Ace edc|BGE FEF|GEC CB,C|
EGB EGB|Ace edc|BGe caf|gee e2:|
g|:bgb afa|gfe dcB|cAe BGE|Ffe dcB|
[1bgb afa|gfe dcB|cAe Baf|gee ega:|
[2GEB AFc|Bec BGE|BGe caf|gee e2|]
